X:1
T:The Alphabet Song
C:Traditional
M:4/4
L:1/4
Q:1/4=120
K:G
G G d d | e d c B | A A G G | d d e d | c B A A | G G d d | e d c B | A A G G | d d e d | c B B2 |]
w: A B C D | E F G H | I J K L | M N O P | Q R S T | U V W X | Y Z Now I | know my A B | C's Next time won't | you sing with me
